outputs/icons/image/image_round.svg

<svg xmlns="http://www.w3.org/2000/svg" width="1200" height="1200" fill="none"><g clip-path="url(#a)"><path fill="#000" d="M1050 950V250c0-55-45-100-100-100H250c-55 0-100 45-100 100v700c0 55 45 100 100 100h700c55 0 100-45 100-100M445 699l105 126.5L705 626c10-13 30-13 40 .5l175.5 234c12.5 16.5.5 40-20 40H301c-21 0-32.5-24-19.5-40.5L406 700c9.5-13 28.5-13.5 39-1"/></g><defs><clipPath id="a"><path fill="#fff" d="M0 0h1200v1200H0z"/></clipPath></defs></svg>

<svg width="1200" height="1200" viewBox="0 0 1200 1200" fill="none" xmlns="http://www.w3.org/2000/svg"><g clip-path="url(#clip0_238_2763)"><path d="M1050 950V250C1050 195 1005 150 950 150H250C195 150 150 195 150 250V950C150 1005 195 1050 250 1050H950C1005 1050 1050 1005 1050 950ZM445 699L550 825.5L705 626C715 613 735 613 745 626.5L920.5 860.5C933 877 921 900.5 900.5 900.5H301C280 900.5 268.5 876.5 281.5 860L406 700C415.5 687 434.5 686.5 445 699Z" fill="#1D1E23"/></g><defs><clipPath id="clip0_238_2763"><path width="24" fill="white" d="M0 0H1200V1200H0V0z"/></clipPath></defs></svg>
